!!!!SEGMENT: pl-wn--mus-iii-65-947-cim--016_sowinski-wojciech--swiety-wojciech-meczennik-no-14-recitativo.krn
!!!cenid: 18xx:3609
!!!COM: Sowiński, Wojciech
!!!COM-rismid: pe30008543
!!!CDT: ~1803-1880/03/05
!!!CNT:
!!!GTL: Święty Wojciech męczennik
!!!OTL: No. 14. Recitativo
!!!PDT: 1877
!!!AGN:
!!!SMS-siglum: PL-Wn
!!!SMS-shelfmark: Mus.III.65.947 Cim.
!!!SMS-shelfwork: 016 G
!!!SMS-variant:
!!!SMS-altvar:
!!!NIFC-rismid:
!!!system-decoration: s1{(s2,s3)}
**kern	**kern	**dynam	**kern	**text	**dynam
*part2	*part2	*part2	*part1	*part1	*part1
*staff3	*staff2	*	*staff1	*staff1	*
*Iempty	*Ipiano	*	*Iempty	*	*
*	*I"Piano	*	*I"Mieczysław	*	*
*	*I'pf	*	*I'M	*	*
*clefF4	*clefG2	*	*clefG2	*	*
*k[b-]	*k[b-]	*	*k[b-]	*	*
*d:	*d:	*	*d:	*	*
*M4/4	*M4/4	*	*M4/4	*	*
*met(c)	*met(c)	*	*met(c)	*	*
=1	=1	=1	=1	=1	=1
4A 4AA\	4a 4c#X/	.	4r	.	.
!	!	!	!LO:TX:a:t=Recitativo.	!	!
4r	4r	.	4a/	Tyś	.
2r	2r	.	4.a/	mo-	.
.	.	.	8b-/	-je	.
=2	=2	=2	=2	=2	=2
1r	1r	.	4cc#X\	ser-	.
.	.	.	8cc#\	-ce	.
.	.	.	8dd\	nat-	.
.	.	.	4ee^\	-chnął	.
.	.	.	8.dd\	ich	.
.	.	.	16cc#\	mi-	.
=3	=3	=3	=3	=3	=3
4r	4r	.	2dd\	-łoś-	.
(8.FL 8.D\	(8.aL 8.f/	.	.	.	.
16A\Jk)	16d/Jk)	.	.	.	.
4F 4D\	4a 4f/	.	4dd\	-cią;	.
4r	4r	.	8r	.	.
.	.	.	8dd\	To	.
=4	=4	=4	=4	=4	=4
4D 4DD/	4dd 4f 4d/	.	4.dd\	dzie-	.
4r	4r	.	.	.	.
.	.	.	8dd\	-wcze	.
4BB- 4BBB-/	4dd 4b- 4f 4d/	.	8dd\	ko-	.
.	.	.	8dd\	-cham,	.
4r	4r	.	8.dd\	lud	.
.	.	.	16dd\	jest	.
=5	=5	=5	=5	=5	=5
1G 1GG	1bn 1f 1d	.	2dd\	mo-	.
.	.	.	4.ee^\	-ją	.
.	.	.	8dd\	włas-	.
=6	=6	=6	=6	=6	=6
[2C [2CC/	[2cc [2e [2c/	.	2ccn\	-noś-	.
4C] 4CC/]	4cc] 4e] 4c/]	.	4cc\	-cią	.
4r	4r	.	8r	.	.
.	.	.	8cc\	Przy	.
=7	=7	=7	=7	=7	=7
!	!	!	!	!	!LO:DY:a
4F 4FF/	4cc 4a 4f 4c/	.	2cc\	mnie	f
4r	4r	.	.	.	.
4F 4FF/	4cc 4a 4f 4c/	.	4r	.	.
!	!	!	!	!	!LO:HP:a
4r	4r	.	8.cc\	dom	<
.	.	.	16ff\	jest	[[
=8	=8	=8	=8	=8	=8
2c 2C\	4.ee 4.cc 4.g 4.e/	.	2.ee\	wasz!	.
.	24cc/LL	.	.	.	.
.	24e/	.	.	.	.
.	24g/JJ	.	.	.	.
4C 4CC/	4c/	.	.	.	.
4r	4r	.	4r	.	.
=9	=9	=9	=9	=9	=9
!	!LO:TX:a:t=Andante	!	!	!	!
2F 2FF/	2c 2A/	p	1r	.	.
2FF 2FFF/	4.c 4.A/	.	.	.	.
.	8f/	.	.	.	.
=10	=10	=10	=10	=10	=10
!	!	!	!LO:TX:a:Bi:t=WOJCIECH	!	!
2AA 2AAA/	2.e 2.c#X 2.A/	<	1r	.	.
2GG 2GGG/	.	.	.	.	.
.	4e 4c# 4A/	[ > ]]	.	.	.
*	*	*	*clefF4	*	*
=11	=11	=11	=11	=11	=11
2.FF#X 2.FFF#X/	2.d 2.A/	.	2r	.	.
!	!	!	!LO:TX:a:t=Recitativo	!	!
.	.	.	4A\	Lud	.
4r	4r	.	8.A\	dzia-	.
.	.	.	16A\	-twą	.
=12	=12	=12	=12	=12	=12
2r	2r	.	2cn\	Bo-	.
4D 4DD\	4f#X 4d 4A/	.	4.c\	-ga!	.
4r	4r	.	.	.	.
.	.	.	8B-\	gdy	.
=13	=13	=13	=13	=13	=13
1G 1GG	1g 1d 1B-	p	2B-\	jej	.
.	.	.	4.B-\	pę-	.
.	.	.	8B-\	-ta	.
=14	=14	=14	=14	=14	=14
2E 2EE/	1g 1B-	.	4B-\	skru-	.
.	.	.	4B-\	-szę	.
2D 2DD/	.	.	2r	.	.
=15	=15	=15	=15	=15	=15
2C#X 2CC#X/	4g 4A/	.	2A\	Waw-	.
.	2g 2en 2A/	.	.	.	.
2C# 2CC#/	.	.	4.A\	-rzy-	.
.	4g 4e 4A/	.	.	.	.
.	.	.	8A\	-nem	.
=16	=16	=16	=16	=16	=16
2Cn 2CCn/	2.f#X 2.e-X 2.A/	.	4.A\	świę-	.
.	.	.	8A\	-tym	.
2C 2CC/	.	.	8.A\	za	.
.	.	.	16A\	twą	.
.	4f# 4e- 4A/	.	8.A\	grzesz-	.
.	.	.	16A\	-ną	.
=17	=17	=17	=17	=17	=17
2.BB- 2.BBB-/	2.g 2.d 2.G/	.	2d\	du-	.
.	.	.	4G\	-szę	.
4BB- 4BBB-/	4dd 4g#X 4fn 4d/	.	8.d\	sam	.
.	.	.	16d\	u-	.
=18	=18	=18	=18	=18	=18
4AA 4AAA/	4dd 4a 4f#X 4d/	.	2d\	-wie-	.
4r	4r	.	.	.	.
!	!LO:TX:b:t=rall.	!	!LO:TX:a:t=rall.	!	!
4AA 4AAA/	4cc#X 4a 4en/	.	4.c\	-ńczę	.
4r	4r	.	.	.	.
.	.	.	8C/	mą	.
=19	=19	=19	=19	=19	=19
*tremolo	*	*	*	*	*
32DD/LLL	[2dd [2a [2f#X [2d/	sf	2.d\	skroń!	.
32D/	.	.	.	.	.
32DD/	.	.	.	.	.
32D/JJJ	.	.	.	.	.
32DD/LLL	.	.	.	.	.
32D/	.	.	.	.	.
32DD/	.	.	.	.	.
32D/JJJ	.	.	.	.	.
32DD/LLL	.	.	.	.	.
32D/	.	.	.	.	.
32DD/	.	.	.	.	.
32D/JJJ	.	.	.	.	.
32DD/LLL	.	.	.	.	.
32D/	.	.	.	.	.
32DD/	.	.	.	.	.
32D/JJJ	.	.	.	.	.
*Xtremolo	*	*	*	*	*
4DD/	4dd] 4a] 4f#] 4d/]	.	.	.	.
4r	16d/LL	.	4r	.	.
.	16c#X/	.	.	.	.
.	16d/	.	.	.	.
.	16c#/JJ	.	.	.	.
=20	=20	=20	=20	=20	=20
*	*	*	*clefG2	*	*
!	!	!	!LO:TX:a:Bi:t=MIECZYSŁAW.	!	!
4D 4DD/	16d/LL	f	2r	.	.
.	16c#X/	.	.	.	.
.	16d/	.	.	.	.
.	16c#/JJ	.	.	.	.
4r	16d/LL	.	.	.	.
.	16c#/	.	.	.	.
.	16d/	.	.	.	.
.	16c#/JJ	.	.	.	.
!	!LO:TX:b:t=animato	!	!	!	!
2r	16d/LL	.	4r	.	.
.	16c#/	.	.	.	.
.	16d/	.	.	.	.
.	16c#/JJ	.	.	.	.
.	16d/LL	.	8r	.	.
.	16c#/	.	.	.	.
!	!	!	!LO:TX:a:t=animato	!	!LO:DY:a
.	16d/	.	8a/	Więc	f
.	16e/JJ	.	.	.	.
=21	=21	=21	=21	=21	=21
*	*tremolo	*	*	*	*
2BB- 2BBB-^/	16fn/LL	.	2dd\	śmier-	.
.	16d/	.	.	.	.
.	16f/	.	.	.	.
.	16d/	.	.	.	.
.	16f/	.	.	.	.
.	16d/	.	.	.	.
.	16f/	.	.	.	.
.	16d/JJ	.	.	.	.
2AA 2AAA^/	16f/LL	.	4dd\	-ci	.
.	16d/	.	.	.	.
.	16f/	.	.	.	.
.	16d/	.	.	.	.
.	16f/	.	8.dd\	szu-	.
.	16d/	.	.	.	.
.	16f/	.	.	.	.
.	16d/JJ	.	16dd\	-kasz?	.
=22	=22	=22	=22	=22	=22
2.GG#X 2.GGG#X/	16f/LL	.	4d/	ja	.
.	16d/	.	.	.	.
.	16f/	.	.	.	.
.	16d/	.	.	.	.
.	16f/	.	4dd\	z twych	.
.	16d/	.	.	.	.
.	16f/	.	.	.	.
.	16d/JJ	.	.	.	.
.	16f/LL	.	4.dd\	na-	.
.	16d/	.	.	.	.
.	16f/	.	.	.	.
.	16d/	.	.	.	.
4AA 4AAA/	16f/	.	.	.	.
.	16d/	.	.	.	.
.	16f/	.	8dd\	-uk	.
.	16d/JJ	.	.	.	.
=23	=23	=23	=23	=23	=23
2BB- 2BBB-/	16f/LL	.	2dd^\	szy-	.
.	16d/	.	.	.	.
.	16f/	.	.	.	.
.	16d/	.	.	.	.
.	16f/	.	.	.	.
.	16d/	.	.	.	.
.	16f/	.	.	.	.
.	16d/JJ	.	.	.	.
2AA 2AAA/	16f/LL	.	8d/	-dzę!	.
.	16d/	.	.	.	.
.	16f/	.	8dd\	Chcesz	.
.	16d/	.	.	.	.
.	16f/	.	8dd\	mię	.
.	16d/	.	.	.	.
.	16f/	.	8dd\	po-	.
.	16d/JJ	.	.	.	.
*	*Xtremolo	*	*	*	*
=24	=24	=24	=24	=24	=24
2GGn 2GGGn/	2b- 2e-X 2B-/	sf sf sf	8.ee-X\	-rzu-	.
.	.	.	16ee-\	-cić?	.
.	.	.	4ee-\	idź,	.
2GG#X 2GGG#X/	2bn 2d 2Bn/	sf sf sf	8r	.	.
.	.	.	8dd\	niech	.
!	!	!	!	!	!LO:HP:a
.	.	.	8dd\	cię	<
.	.	.	8dd\	nie	[[
=25	=25	=25	=25	=25	=25
4AA 4AAA/	4a 4e 4c 4A/	sf	4dd\	wi-	.
4r	4r	.	8d/	-dzę!	.
.	.	.	8r	.	.
!	!	!	!	!	!LO:DY:a
2r	2r	.	4.dd\	Or-	f
.	.	.	8dd\	-ły	.
=26	=26	=26	=26	=26	=26
4AA 4AAA/	4a 4f 4d 4A^/	.	2.aa;\	me,	.
4r	4r	.	.	.	.
4AA 4AAA\	4e 4c#X 4A 4E^/	.	.	.	.
4r	4r	.	4a/	za	f
=27	=27	=27	=27	=27	=27
*	*	*	*^	*	*
!	!	!LO:DY:a	!	!	!	!
2AA 2AAA;\	2c#X 2A 2E;/	f	2aa;/	2ee;\	broń!	.
2r	2r	.	2ryy	2r	.	.
*	*	*	*v	*v	*	*
==	==	==	==	==	==
*-	*-	*-	*-	*-	*-
!!title: @{OTL};
!!!RDF**kern: > = above
!!!RDF**kern: < = below
!!!RDF**dynam: > = "dim", fontstyle= "bold-italic"
!!!RDF**dynam: < = "cres", fontstyle= "bold-italic"
!!!RDF**kern: | = vertical stroke
!!!RDF**kern: N = linked
!!!RDF**kern: i = editorial accidental
!!!RDF**kern: l = terminal long
!!!AIN: 2 empty
!!!ENC: Andrzej Gręziak
!!!END: 2022-02-22
!!!EED: Wojciech Jakubiak-Danek
!!!EEV: 2022-02-28
!!!URL-scan: https://polona.pl/item/swiety-wojciech-meczennik-oratorjo-w-trzech-czesciach-dzielo-66-spiew-z-fortepianem,MTkzODI1Mzc/242/#item
!!!ONB-nifc: UWAGA: oratorium zawiera w źródle 28 numerów podzielonych na 30 plików (rozdzielenie w No. 6 - osobno Recitativo oraz Aria matki i No. 10 - osobno Recitativo, arja i chór oraz Sen). Polecam widok miniatur na Polonie. Uwaga co do obsady: prosimy umieszczać tylko partie występujące w danym numerze (nie całą obsadę oratorium)
